X:1
T:Daniel Dow's Strathspey
T:Daniel Dow's Strathspey
T:Daniel Dow
C:Daniel Dow
L:1/8
M:4/4
K:F
V:1 treble 
V:1
 d | c>F d/c/B/A/ c<FF>d | c<Af>A c<GG>A | c>F d/c/B/A/ c<AA>f |{f} e>de>c f2 f :| d | %6
 c<Af>A .c.f.A>.f | CAf>A c>GG>d | c>Af>A c.f.A>.f |{f} e>dec f2 fd | c<Af>A .c.f.A>.f | %11
 c<Af>A c<GG>B |{B} A>GAF A<cc>f |{f} e>dec f2 f || %14

